outputs/icons/date_time/calendar_next_round.svg

<svg xmlns="http://www.w3.org/2000/svg" width="1200" height="1200" fill="none"><path fill="#000" d="M900 200h50c55 0 100 45 100 100v439.175c0 27.615-22.385 50-50 50-26.755 0-48.605-21.015-49.935-47.445l-.065-.015V450H250v500c0 27.5 22.5 50 50 50h258.695c27.185.5 49.07 22.7 49.07 50 0 27.305-21.89 49.495-49.075 49.99l-.925.01H250c-55.5 0-100-45-100-100l.5-700c0-55 44-100 99.5-100h50v-50c0-27.614 22.386-50 50-50s50 22.386 50 50v50h400v-50c0-27.614 22.385-50 50-50s50 22.386 50 50zM949.995 1172.82V1100h-192.06c-27.615 0-50-22.385-50-50s22.385-50 50-50h192.06v-72.82c0-10.68 12.53-16.445 20.635-9.495l143.295 122.825c5.82 4.99 5.82 13.99 0 18.98L970.63 1182.315c-8.105 6.95-20.635 1.185-20.635-9.495"/></svg>

<svg width="1200" height="1200" viewBox="0 0 1200 1200" fill="none" xmlns="http://www.w3.org/2000/svg"><path d="M900 200H950C1005 200 1050 245 1050 300V739.175C1050 766.79 1027.615 789.175 1000 789.175C973.245 789.175 951.395 768.16 950.065 741.73L950 741.715V450H250V950C250 977.5 272.5 1000 300 1000H558.695C585.88 1000.5 607.765 1022.7 607.765 1050C607.765 1077.305 585.875 1099.495 558.69 1099.99L557.765 1100H250C194.5 1100 150 1055 150 1000L150.5 300C150.5 245 194.5 200 250 200H300V150C300 122.386 322.386 100 350 100C377.614 100 400 122.386 400 150V200H800V150C800 122.386 822.385 100 850 100C877.615 100 900 122.386 900 150V200Z" fill="#1D1E23"/><path d="M949.995 1172.82V1100H757.935C730.32 1100 707.935 1077.615 707.935 1050C707.935 1022.385 730.32 1000 757.935 1000H949.995V927.18C949.995 916.5 962.525 910.735 970.63 917.685L1113.925 1040.51C1119.745 1045.5 1119.745 1054.5 1113.925 1059.49L970.63 1182.315C962.525 1189.265 949.995 1183.5 949.995 1172.82Z" fill="#1D1E23"/></svg>
